images/icons/show__more.svg

<?xml version="1.0" encoding="UTF-8"?>
<!DOCTYPE svg PUBLIC "-//W3C//DTD SVG 1.1//EN" "http://www.w3.org/Graphics/SVG/1.1/DTD/svg11.dtd">
<!-- Creator: CorelDRAW 2018 (64-Bit) -->
<svg xmlns="http://www.w3.org/2000/svg" xml:space="preserve" width="1.4553mm" height="1.4151mm" version="1.1" style="shape-rendering:geometricPrecision; text-rendering:geometricPrecision; image-rendering:optimizeQuality; fill-rule:evenodd; clip-rule:evenodd"
viewBox="0 0 5.52 5.37"
 xmlns:xlink="http://www.w3.org/1999/xlink">
 <defs>
  <style type="text/css">
   <![CDATA[
    .fil0 {fill:#767676;fill-rule:nonzero}
   ]]>
  </style>
 </defs>
 <g id="Layer_x0020_1">
  <metadata id="CorelCorpID_0Corel-Layer"/>
  <path class="fil0" d="M2.85 5.33l2.65 -3.08c0.02,-0.02 0.03,-0.05 0.03,-0.07 0,-0.02 -0,-0.03 -0.01,-0.05 -0.02,-0.04 -0.06,-0.07 -0.1,-0.07l-5.3 0c-0.04,0 -0.08,0.03 -0.1,0.07 -0.02,0.04 -0.01,0.09 0.02,0.12l2.65 3.08c0.02,0.03 0.05,0.04 0.08,0.04 0.03,0 0.06,-0.01 0.08,-0.04zm-2.49 -3.04l0 0 4.81 0 -2.4 2.8 -2.4 -2.8z"/>
  <path class="fil0" d="M5.45 1.3l0 -1.18c0,-0.06 -0.05,-0.11 -0.11,-0.11l-5.01 0c-0.06,0 -0.11,0.05 -0.11,0.11l0 1.18c0,0.06 0.05,0.11 0.11,0.11l5.01 0c0.06,0 0.11,-0.05 0.11,-0.11zm-5.01 -0.11l0 0 0 -0.96 4.78 0 0 0.96 -4.78 0z"/>
 </g>
</svg>

<svg xmlns="http://www.w3.org/2000/svg" width="5.5" height="5.348" viewBox="0 0 5.52 5.37" shape-rendering="geometricPrecision" text-rendering="geometricPrecision" image-rendering="optimizeQuality" fill-rule="evenodd" clip-rule="evenodd"><path d="M2.85 5.33L5.5 2.25c.02-.02.03-.05.03-.07 0-.02 0-.03-.01-.05-.02-.04-.06-.07-.1-.07H.12c-.04 0-.08.03-.1.07-.02.04-.01.09.02.12l2.65 3.08c.02.03.05.04.08.04s.06-.01.08-.04zM.36 2.29h4.81l-2.4 2.8-2.4-2.8zm5.09-.99V.12c0-.06-.05-.11-.11-.11H.33C.27.01.22.06.22.12V1.3c0 .06.05.11.11.11h5.01c.06 0 .11-.05.11-.11zM.44 1.19V.23h4.78v.96H.44z" fill="#767676" fill-rule="nonzero"/></svg>
